images/portal/4838.svg

<?xml version="1.0" standalone="no"?>
<!DOCTYPE svg PUBLIC "-//W3C//DTD SVG 1.1//EN" "http://www.w3.org/Graphics/SVG/1.1/DTD/svg11.dtd">
<svg xmlns:xlink="http://www.w3.org/1999/xlink" version="1.1" class="highcharts-root" style="font-family:arial;font-size:12px;" xmlns="http://www.w3.org/2000/svg" viewBox="0 0 485 415">
  <desc>
    Created with Highstock 5.0.14
  </desc>
  <defs>
    <clipPath id="highcharts-9o8jguo-6">
      <rect x="0" y="0" width="294" height="363" fill="none"/>
    </clipPath>
    <clipPath id="highcharts-9o8jguo-7">
      <rect x="0" y="0" width="294" height="363" fill="none"/>
    </clipPath>
  </defs>
  <rect fill="#fbfbfb" class="highcharts-background" x="0" y="0" width="485" height="415" rx="0" ry="0"/>
  <rect fill="none" class="highcharts-plot-background" x="112" y="55" width="363" height="294"/>
  <g class="highcharts-pane-group"/>
  <g class="highcharts-grid highcharts-xaxis-grid ">
    <path fill="none" class="highcharts-grid-line" d="M 112 69.5 L 475 69.5" opacity="1"/>
    <path fill="none" class="highcharts-grid-line" d="M 112 83.5 L 475 83.5" opacity="1"/>
    <path fill="none" class="highcharts-grid-line" d="M 112 97.5 L 475 97.5" opacity="1"/>
    <path fill="none" class="highcharts-grid-line" d="M 112 111.5 L 475 111.5" opacity="1"/>
    <path fill="none" class="highcharts-grid-line" d="M 112 125.5 L 475 125.5" opacity="1"/>
    <path fill="none" class="highcharts-grid-line" d="M 112 139.5 L 475 139.5" opacity="1"/>
    <path fill="none" class="highcharts-grid-line" d="M 112 153.5 L 475 153.5" opacity="1"/>
    <path fill="none" class="highcharts-grid-line" d="M 112 167.5 L 475 167.5" opacity="1"/>
    <path fill="none" class="highcharts-grid-line" d="M 112 181.5 L 475 181.5" opacity="1"/>
    <path fill="none" class="highcharts-grid-line" d="M 112 195.5 L 475 195.5" opacity="1"/>
    <path fill="none" class="highcharts-grid-line" d="M 112 209.5 L 475 209.5" opacity="1"/>
    <path fill="none" class="highcharts-grid-line" d="M 112 223.5 L 475 223.5" opacity="1"/>
    <path fill="none" class="highcharts-grid-line" d="M 112 237.5 L 475 237.5" opacity="1"/>
    <path fill="none" class="highcharts-grid-line" d="M 112 251.5 L 475 251.5" opacity="1"/>
    <path fill="none" class="highcharts-grid-line" d="M 112 265.5 L 475 265.5" opacity="1"/>
    <path fill="none" class="highcharts-grid-line" d="M 112 279.5 L 475 279.5" opacity="1"/>
    <path fill="none" class="highcharts-grid-line" d="M 112 293.5 L 475 293.5" opacity="1"/>
    <path fill="none" class="highcharts-grid-line" d="M 112 307.5 L 475 307.5" opacity="1"/>
    <path fill="none" class="highcharts-grid-line" d="M 112 321.5 L 475 321.5" opacity="1"/>
    <path fill="none" class="highcharts-grid-line" d="M 112 335.5 L 475 335.5" opacity="1"/>
    <path fill="none" class="highcharts-grid-line" d="M 112 349.5 L 475 349.5" opacity="1"/>
    <path fill="none" class="highcharts-grid-line" d="M 112 55.5 L 475 55.5" opacity="1"/>
  </g>
  <g class="highcharts-grid highcharts-yaxis-grid ">
    <path fill="none" stroke="#e6e6e6" stroke-width="1" class="highcharts-grid-line" d="M 111.5 55 L 111.5 349" opacity="1"/>
    <path fill="none" stroke="#e6e6e6" stroke-width="1" class="highcharts-grid-line" d="M 184.5 55 L 184.5 349" opacity="1"/>
    <path fill="none" stroke="#e6e6e6" stroke-width="1" class="highcharts-grid-line" d="M 256.5 55 L 256.5 349" opacity="1"/>
    <path fill="none" stroke="#e6e6e6" stroke-width="1" class="highcharts-grid-line" d="M 329.5 55 L 329.5 349" opacity="1"/>
    <path fill="none" stroke="#e6e6e6" stroke-width="1" class="highcharts-grid-line" d="M 401.5 55 L 401.5 349" opacity="1"/>
    <path fill="none" stroke="#e6e6e6" stroke-width="1" class="highcharts-grid-line" d="M 475.5 55 L 475.5 349" opacity="1"/>
  </g>
  <rect fill="none" class="highcharts-plot-border" x="112" y="55" width="363" height="294"/>
  <g class="highcharts-axis highcharts-xaxis ">
    <path fill="none" class="highcharts-tick" stroke="#FFFFFF" stroke-width="1" d="M 112 69.5 L 102 69.5" opacity="1"/>
    <path fill="none" class="highcharts-tick" stroke="#FFFFFF" stroke-width="1" d="M 112 83.5 L 102 83.5" opacity="1"/>
    <path fill="none" class="highcharts-tick" stroke="#FFFFFF" stroke-width="1" d="M 112 97.5 L 102 97.5" opacity="1"/>
    <path fill="none" class="highcharts-tick" stroke="#FFFFFF" stroke-width="1" d="M 112 111.5 L 102 111.5" opacity="1"/>
    <path fill="none" class="highcharts-tick" stroke="#FFFFFF" stroke-width="1" d="M 112 125.5 L 102 125.5" opacity="1"/>
    <path fill="none" class="highcharts-tick" stroke="#FFFFFF" stroke-width="1" d="M 112 139.5 L 102 139.5" opacity="1"/>
    <path fill="none" class="highcharts-tick" stroke="#FFFFFF" stroke-width="1" d="M 112 153.5 L 102 153.5" opacity="1"/>
    <path fill="none" class="highcharts-tick" stroke="#FFFFFF" stroke-width="1" d="M 112 167.5 L 102 167.5" opacity="1"/>
    <path fill="none" class="highcharts-tick" stroke="#FFFFFF" stroke-width="1" d="M 112 181.5 L 102 181.5" opacity="1"/>
    <path fill="none" class="highcharts-tick" stroke="#FFFFFF" stroke-width="1" d="M 112 195.5 L 102 195.5" opacity="1"/>
    <path fill="none" class="highcharts-tick" stroke="#FFFFFF" stroke-width="1" d="M 112 209.5 L 102 209.5" opacity="1"/>
    <path fill="none" class="highcharts-tick" stroke="#FFFFFF" stroke-width="1" d="M 112 223.5 L 102 223.5" opacity="1"/>
    <path fill="none" class="highcharts-tick" stroke="#FFFFFF" stroke-width="1" d="M 112 237.5 L 102 237.5" opacity="1"/>
    <path fill="none" class="highcharts-tick" stroke="#FFFFFF" stroke-width="1" d="M 112 251.5 L 102 251.5" opacity="1"/>
    <path fill="none" class="highcharts-tick" stroke="#FFFFFF" stroke-width="1" d="M 112 265.5 L 102 265.5" opacity="1"/>
    <path fill="none" class="highcharts-tick" stroke="#FFFFFF" stroke-width="1" d="M 112 279.5 L 102 279.5" opacity="1"/>
    <path fill="none" class="highcharts-tick" stroke="#FFFFFF" stroke-width="1" d="M 112 293.5 L 102 293.5" opacity="1"/>
    <path fill="none" class="highcharts-tick" stroke="#FFFFFF" stroke-width="1" d="M 112 307.5 L 102 307.5" opacity="1"/>
    <path fill="none" class="highcharts-tick" stroke="#FFFFFF" stroke-width="1" d="M 112 321.5 L 102 321.5" opacity="1"/>
    <path fill="none" class="highcharts-tick" stroke="#FFFFFF" stroke-width="1" d="M 112 335.5 L 102 335.5" opacity="1"/>
    <path fill="none" class="highcharts-tick" stroke="#FFFFFF" stroke-width="1" d="M 112 349.5 L 102 349.5" opacity="1"/>
    <path fill="none" class="highcharts-tick" stroke="#FFFFFF" stroke-width="1" d="M 112 54.5 L 102 54.5" opacity="1"/>
    <path fill="none" class="highcharts-axis-line" stroke="#ccd6eb" stroke-width="1" d="M 111.5 55 L 111.5 349"/>
  </g>
  <g class="highcharts-axis highcharts-yaxis ">
    <path fill="none" class="highcharts-axis-line" d="M 112 349 L 475 349"/>
  </g>
  <g class="highcharts-series-group">
    <g class="highcharts-series highcharts-series-0 highcharts-scatter-series highcharts-color-undefined " transform="translate(475,349) rotate(90) scale(-1,1) scale(1 1)" clip-path="url(#highcharts-9o8jguo-7)"/>
    <g class="highcharts-markers highcharts-series-0 highcharts-scatter-series highcharts-color-undefined " transform="translate(475,349) rotate(90) scale(-1,1) scale(1 1)" clip-path="none">
      <path fill="#689199" d="M 291 354 A 4 4 0 1 1 290.9999980000002 353.99600000066664 Z" class="highcharts-point"/>
      <path fill="#689199" d="M 277 353 A 4 4 0 1 1 276.9999980000002 352.99600000066664 Z" class="highcharts-point"/>
      <path fill="#689199" d="M 263 352 A 4 4 0 1 1 262.9999980000002 351.99600000066664 Z" class="highcharts-point"/>
      <path fill="#689199" d="M 249 351 A 4 4 0 1 1 248.99999800000018 350.99600000066664 Z" class="highcharts-point"/>
      <path fill="#689199" d="M 235 350 A 4 4 0 1 1 234.99999800000018 349.99600000066664 Z" class="highcharts-point"/>
      <path fill="#689199" d="M 221 349 A 4 4 0 1 1 220.99999800000018 348.99600000066664 Z" class="highcharts-point"/>
      <path fill="#689199" d="M 207 342 A 4 4 0 1 1 206.99999800000018 341.99600000066664 Z" class="highcharts-point"/>
      <path fill="#689199" d="M 193 342 A 4 4 0 1 1 192.99999800000018 341.99600000066664 Z" class="highcharts-point"/>
      <path fill="#689199" d="M 179 338 A 4 4 0 1 1 178.99999800000018 337.99600000066664 Z" class="highcharts-point"/>
      <path fill="#689199" d="M 165 318 A 4 4 0 1 1 164.99999800000018 317.99600000066664 Z" class="highcharts-point"/>
      <path fill="#689199" d="M 151 314 A 4 4 0 1 1 150.99999800000018 313.99600000066664 Z" class="highcharts-point"/>
      <path fill="#689199" d="M 137 304 A 4 4 0 1 1 136.99999800000018 303.99600000066664 Z" class="highcharts-point"/>
      <path fill="#689199" d="M 123 290 A 4 4 0 1 1 122.99999800000016 289.99600000066664 Z" class="highcharts-point"/>
      <path fill="#689199" d="M 109 289 A 4 4 0 1 1 108.99999800000016 288.99600000066664 Z" class="highcharts-point"/>
      <path fill="#689199" d="M 95 287 A 4 4 0 1 1 94.99999800000016 286.99600000066664 Z" class="highcharts-point"/>
      <path fill="#689199" d="M 81 250 A 4 4 0 1 1 80.99999800000016 249.99600000066667 Z" class="highcharts-point"/>
      <path fill="#689199" d="M 67 232 A 4 4 0 1 1 66.99999800000016 231.99600000066667 Z" class="highcharts-point"/>
      <path fill="#689199" d="M 53 214 A 4 4 0 1 1 52.99999800000017 213.99600000066667 Z" class="highcharts-point"/>
      <path fill="#689199" d="M 39 207 A 4 4 0 1 1 38.99999800000017 206.99600000066667 Z" class="highcharts-point"/>
      <path fill="#689199" d="M 25 31 A 4 4 0 1 1 24.99999800000017 30.996000000666665 Z" class="highcharts-point"/>
      <path fill="#689199" d="M 11 29 A 4 4 0 1 1 10.999998000000167 28.996000000666665 Z" class="highcharts-point"/>
    </g>
    <g class="highcharts-series highcharts-series-1 highcharts-scatter-series highcharts-color-0 " visibility="hidden" transform="translate(475,349) rotate(90) scale(-1,1) scale(1 1)" clip-path="url(#highcharts-9o8jguo-7)"/>
    <g class="highcharts-markers highcharts-series-1 highcharts-scatter-series highcharts-color-0 " visibility="hidden" transform="translate(475,349) rotate(90) scale(-1,1) scale(1 1)" clip-path="none"/>
  </g>
  <text x="10" text-anchor="start" class="highcharts-title" style="color:#000000;font-size:14px;font-weight:bold;font-family:arial;fill:#000000;" y="21">
    <tspan>Arbeitsplätze pro Kopf</tspan>
  </text>
  <text x="10" text-anchor="start" class="highcharts-subtitle" style="color:#000000;font-size:12px;font-weight:normal;font-family:arial;fill:#000000;" y="40">
    <tspan>Stand: 2014</tspan>
  </text>
  <g class="highcharts-axis-labels highcharts-xaxis-labels ">
    <text x="97" style="color:#000000;cursor:default;font-size:10px;fill:#000000;" text-anchor="end" transform="translate(0,0)" y="66" opacity="1">
      <tspan>Breite</tspan>
    </text>
    <text x="97" style="color:#000000;cursor:default;font-size:10px;fill:#000000;" text-anchor="end" transform="translate(0,0)" y="80" opacity="1">
      <tspan>Bruderholz</tspan>
    </text>
    <text x="97" style="color:#000000;cursor:default;font-size:10px;fill:#000000;" text-anchor="end" transform="translate(0,0)" y="94" opacity="1">
      <tspan>Iselin</tspan>
    </text>
    <text x="97" style="color:#000000;cursor:default;font-size:10px;fill:#000000;" text-anchor="end" transform="translate(0,0)" y="108" opacity="1">
      <tspan>Riehen</tspan>
    </text>
    <text x="97" style="color:#000000;cursor:default;font-size:10px;fill:#000000;" text-anchor="end" transform="translate(0,0)" y="122" opacity="1">
      <tspan>Matthäus</tspan>
    </text>
    <text x="97" style="color:#000000;cursor:default;font-size:10px;fill:#000000;" text-anchor="end" transform="translate(0,0)" y="136" opacity="1">
      <tspan>Bachletten</tspan>
    </text>
    <text x="97" style="color:#000000;cursor:default;font-size:10px;fill:#000000;" text-anchor="end" transform="translate(0,0)" y="150" opacity="1">
      <tspan>Bettingen</tspan>
    </text>
    <text x="97" style="color:#000000;cursor:default;font-size:10px;fill:#000000;" text-anchor="end" transform="translate(0,0)" y="164" opacity="1">
      <tspan>Gotthelf</tspan>
    </text>
    <text x="97" style="color:#000000;cursor:default;font-size:10px;fill:#000000;" text-anchor="end" transform="translate(0,0)" y="178" opacity="1">
      <tspan>Hirzbrunnen</tspan>
    </text>
    <text x="97" style="color:#000000;cursor:default;font-size:10px;fill:#000000;" text-anchor="end" transform="translate(0,0)" y="192" opacity="1">
      <tspan>Gundeldingen</tspan>
    </text>
    <text x="97" style="color:#000000;cursor:default;font-size:10px;fill:#000000;" text-anchor="end" transform="translate(0,0)" y="206" opacity="1">
      <tspan>Clara</tspan>
    </text>
    <text x="97" style="color:#000000;cursor:default;font-size:10px;fill:#000000;" text-anchor="end" transform="translate(0,0)" y="220" opacity="1">
      <tspan>Klybeck</tspan>
    </text>
    <text x="97" style="color:#000000;cursor:default;font-size:10px;fill:#000000;" text-anchor="end" transform="translate(0,0)" y="234" opacity="1">
      <tspan>St. Johann</tspan>
    </text>
    <text x="97" style="color:#000000;cursor:default;font-size:10px;fill:#000000;" text-anchor="end" transform="translate(0,0)" y="248" opacity="1">
      <tspan>Am Ring</tspan>
    </text>
    <text x="97" style="color:#000000;cursor:default;font-size:10px;fill:#000000;" text-anchor="end" transform="translate(0,0)" y="262" opacity="1">
      <tspan>Rosental</tspan>
    </text>
    <text x="97" style="color:#000000;cursor:default;font-size:10px;fill:#000000;" text-anchor="end" transform="translate(0,0)" y="276" opacity="1">
      <tspan>Altstadt Kleinbasel</tspan>
    </text>
    <text x="97" style="color:#000000;cursor:default;font-size:10px;fill:#000000;" text-anchor="end" transform="translate(0,0)" y="290" opacity="1">
      <tspan>Wettstein</tspan>
    </text>
    <text x="97" style="color:#000000;cursor:default;font-size:10px;fill:#000000;" text-anchor="end" transform="translate(0,0)" y="304" opacity="1">
      <tspan>Kleinhüningen</tspan>
    </text>
    <text x="97" style="color:#000000;cursor:default;font-size:10px;fill:#000000;" text-anchor="end" transform="translate(0,0)" y="318" opacity="1">
      <tspan>St. Alban</tspan>
    </text>
    <text x="97" style="color:#000000;cursor:default;font-size:10px;fill:#000000;" text-anchor="end" transform="translate(0,0)" y="332" opacity="1">
      <tspan>Vorstädte</tspan>
    </text>
    <text x="97" style="color:#000000;cursor:default;font-size:10px;fill:#000000;" text-anchor="end" transform="translate(0,0)" y="346" opacity="1">
      <tspan>Altstadt Grossbasel</tspan>
    </text>
  </g>
  <g class="highcharts-axis-labels highcharts-yaxis-labels ">
    <text x="112" style="color:#000000;cursor:default;font-size:11px;fill:#000000;" text-anchor="middle" transform="translate(0,0)" y="368" opacity="1">
      0
    </text>
    <text x="184.6" style="color:#000000;cursor:default;font-size:11px;fill:#000000;" text-anchor="middle" transform="translate(0,0)" y="368" opacity="1">
      1
    </text>
    <text x="257.2" style="color:#000000;cursor:default;font-size:11px;fill:#000000;" text-anchor="middle" transform="translate(0,0)" y="368" opacity="1">
      2
    </text>
    <text x="329.79999999999995" style="color:#000000;cursor:default;font-size:11px;fill:#000000;" text-anchor="middle" transform="translate(0,0)" y="368" opacity="1">
      3
    </text>
    <text x="402.4" style="color:#000000;cursor:default;font-size:11px;fill:#000000;" text-anchor="middle" transform="translate(0,0)" y="368" opacity="1">
      4
    </text>
    <text x="471.9453125" style="color:#000000;cursor:default;font-size:11px;fill:#000000;" text-anchor="middle" transform="translate(0,0)" y="368" opacity="1">
      5
    </text>
  </g>
  <text x="10" class="highcharts-credits" text-anchor="start" style="cursor:default;color:#000000;font-size:10px;fill:#000000;" y="400">
    <tspan>Quelle: Bundesamt für Statistik BFS, STATENT</tspan>
  </text>
</svg>

<svg class="highcharts-root" xmlns="http://www.w3.org/2000/svg" viewBox="0 0 485 415" font-family="arial" font-size="12">
    <rect fill="#fbfbfb" class="highcharts-background" width="485" height="415" rx="0" ry="0"/>
    <path fill="none" class="highcharts-plot-background" d="M112 55h363v294H112z"/>
    <g class="highcharts-grid highcharts-xaxis-grid">
        <path fill="none" class="highcharts-grid-line" d="M112 69.5h363m-363 14h363m-363 14h363m-363 14h363m-363 14h363m-363 14h363m-363 14h363m-363 14h363m-363 14h363m-363 14h363m-363 14h363m-363 14h363m-363 14h363m-363 14h363m-363 14h363m-363 14h363m-363 14h363m-363 14h363m-363 14h363m-363 14h363m-363 14h363m-363-294h363"/>
    </g>
    <g class="highcharts-grid highcharts-yaxis-grid">
        <path fill="none" stroke="#e6e6e6" class="highcharts-grid-line" d="M111.5 55v294m73-294v294m72-294v294m73-294v294m72-294v294m74-294v294"/>
    </g>
    <path fill="none" class="highcharts-plot-border" d="M112 55h363v294H112z"/>
    <g class="highcharts-axis highcharts-xaxis">
        <path fill="none" class="highcharts-tick" stroke="#FFF" d="M112 69.5h-10m10 14h-10m10 14h-10m10 14h-10m10 14h-10m10 14h-10m10 14h-10m10 14h-10m10 14h-10m10 14h-10m10 14h-10m10 14h-10m10 14h-10m10 14h-10m10 14h-10m10 14h-10m10 14h-10m10 14h-10m10 14h-10m10 14h-10m10 14h-10m10-295h-10"/>
        <path fill="none" class="highcharts-axis-line" stroke="#ccd6eb" d="M111.5 55v294"/>
    </g>
    <g class="highcharts-axis highcharts-yaxis">
        <path fill="none" class="highcharts-axis-line" d="M112 349h363"/>
    </g>
    <g class="highcharts-series-group">
        <g class="highcharts-markers highcharts-series-0 highcharts-scatter-series highcharts-color-undefined">
            <path fill="#689199" d="M121 58a4 4 0 1 1 .004 0zm1 14a4 4 0 1 1 .004 0zm1 14a4 4 0 1 1 .004 0zm1 14a4 4 0 1 1 .004 0zm1 14a4 4 0 1 1 .004 0zm1 14a4 4 0 1 1 .004 0zm7 14a4 4 0 1 1 .004 0zm0 14a4 4 0 1 1 .004 0zm4 14a4 4 0 1 1 .004 0zm20 14a4 4 0 1 1 .004 0zm4 14a4 4 0 1 1 .004 0zm10 14a4 4 0 1 1 .004 0zm14 14a4 4 0 1 1 .004 0zm1 14a4 4 0 1 1 .004 0zm2 14a4 4 0 1 1 .004 0zm37 14a4 4 0 1 1 .004 0zm18 14a4 4 0 1 1 .004 0zm18 14a4 4 0 1 1 .004 0zm7 14a4 4 0 1 1 .004 0zm176 14a4 4 0 1 1 .004 0zm2 14a4 4 0 1 1 .004 0z" class="highcharts-point"/>
        </g>
    </g>
    <text x="10" class="highcharts-title" y="21" color="#000" font-size="14" font-weight="700">
        <tspan>Arbeitsplätze pro Kopf</tspan>
    </text>
    <text x="10" class="highcharts-subtitle" y="40" color="#000" font-weight="400">
        <tspan>Stand: 2014</tspan>
    </text>
    <g class="highcharts-axis-labels highcharts-xaxis-labels" text-anchor="end" color="#000" cursor="default" font-size="10">
        <text x="97" y="66">
            <tspan>Breite</tspan>
        </text>
        <text x="97" y="80">
            <tspan>Bruderholz</tspan>
        </text>
        <text x="97" y="94">
            <tspan>Iselin</tspan>
        </text>
        <text x="97" y="108">
            <tspan>Riehen</tspan>
        </text>
        <text x="97" y="122">
            <tspan>Matthäus</tspan>
        </text>
        <text x="97" y="136">
            <tspan>Bachletten</tspan>
        </text>
        <text x="97" y="150">
            <tspan>Bettingen</tspan>
        </text>
        <text x="97" y="164">
            <tspan>Gotthelf</tspan>
        </text>
        <text x="97" y="178">
            <tspan>Hirzbrunnen</tspan>
        </text>
        <text x="97" y="192">
            <tspan>Gundeldingen</tspan>
        </text>
        <text x="97" y="206">
            <tspan>Clara</tspan>
        </text>
        <text x="97" y="220">
            <tspan>Klybeck</tspan>
        </text>
        <text x="97" y="234">
            <tspan>St. Johann</tspan>
        </text>
        <text x="97" y="248">
            <tspan>Am Ring</tspan>
        </text>
        <text x="97" y="262">
            <tspan>Rosental</tspan>
        </text>
        <text x="97" y="276">
            <tspan>Altstadt Kleinbasel</tspan>
        </text>
        <text x="97" y="290">
            <tspan>Wettstein</tspan>
        </text>
        <text x="97" y="304">
            <tspan>Kleinhüningen</tspan>
        </text>
        <text x="97" y="318">
            <tspan>St. Alban</tspan>
        </text>
        <text x="97" y="332">
            <tspan>Vorstädte</tspan>
        </text>
        <text x="97" y="346">
            <tspan>Altstadt Grossbasel</tspan>
        </text>
    </g>
    <g class="highcharts-axis-labels highcharts-yaxis-labels" text-anchor="middle" color="#000" cursor="default" font-size="11">
        <text x="112" y="368">
            0
        </text>
        <text x="184.6" y="368">
            1
        </text>
        <text x="257.2" y="368">
            2
        </text>
        <text x="329.8" y="368">
            3
        </text>
        <text x="402.4" y="368">
            4
        </text>
        <text x="471.945" y="368">
            5
        </text>
    </g>
    <text x="10" class="highcharts-credits" y="400" cursor="default" color="#000" font-size="10">
        <tspan>Quelle: Bundesamt für Statistik BFS, STATENT</tspan>
    </text>
</svg>
